src/assets/images/codepen.svg

<?xml version="1.0" encoding="UTF-8"?>
<svg width="30px" height="31px" viewBox="0 0 30 31" version="1.1" xmlns="http://www.w3.org/2000/svg" xmlns:xlink="http://www.w3.org/1999/xlink">
    <!-- Generator: Sketch 41.2 (35397) - http://www.bohemiancoding.com/sketch -->
    <title>codepen</title>
    <desc>Created with Sketch.</desc>
    <defs></defs>
    <g id="Page-1" stroke="none" stroke-width="1" fill="none" fill-rule="evenodd">
        <g id="About" transform="translate(-1107.000000, -731.000000)" fill="#E3E3E3">
            <g id="codepen" transform="translate(1107.000000, 731.000000)">
                <path d="M3.616076,19.855984 L8.119429,16.842587 L13.710954,20.575851 L13.710954,26.585902 L3.616076,19.855984 Z M2.578128,17.445267 L2.578128,13.126065 L5.809159,15.285666 L2.578128,17.445267 Z M16.289082,26.585902 L16.289082,20.575851 L21.880606,16.842587 L26.38396,19.855984 L16.289082,26.585902 Z M15.000018,18.332544 L10.446441,15.285666 L15.000018,12.238787 L19.553595,15.285666 L15.000018,18.332544 Z M8.119429,13.728744 L3.616076,10.715348 L13.710954,3.985429 L13.710954,9.995481 L8.119429,13.728744 Z M24.190877,15.285666 L27.421908,13.126065 L27.421908,17.445267 L24.190877,15.285666 Z M21.880606,13.728744 L16.289082,9.995481 L16.289082,3.985429 L26.38396,10.715348 L21.880606,13.728744 Z M30.000036,10.715348 C30.000036,10.296821 29.782402,9.878293 29.430839,9.643918 L15.719885,0.503282 C15.502251,0.369353 15.251134,0.285648 15.000018,0.285648 C14.748902,0.285648 14.497785,0.369353 14.280151,0.503282 L0.569197,9.643918 C0.217634,9.878293 0,10.296821 0,10.715348 L0,19.855984 C0,20.274511 0.217634,20.693038 0.569197,20.927414 L14.280151,30.068049 C14.497785,30.201978 14.748902,30.285684 15.000018,30.285684 C15.251134,30.285684 15.502251,30.201978 15.719885,30.068049 L29.430839,20.927414 C29.782402,20.693038 30.000036,20.274511 30.000036,19.855984 L30.000036,10.715348 Z" id="Shape"></path>
            </g>
        </g>
    </g>
</svg>

<svg width="30" height="31" viewBox="0 0 30 31" xmlns="http://www.w3.org/2000/svg"><title>codepen</title><path d="M3.616 19.856l4.503-3.013 5.59 3.733v6.01l-10.094-6.73zm-1.038-2.41v-4.32l3.23 2.16-3.23 2.16zm13.71 9.14v-6.01l5.593-3.733 4.504 3.013-10.095 6.73zM15 18.333l-4.554-3.047L15 12.24l4.554 3.046L15 18.333zM8.12 13.73l-4.504-3.015 10.095-6.73v6.01L8.12 13.73zm16.07 1.556l3.232-2.16v4.32l-3.23-2.16zm-2.31-1.557l-5.59-3.735v-6.01l10.094 6.73-4.503 3.014zM30 10.714c0-.418-.218-.837-.57-1.07L15.72.502C15.502.37 15.25.286 15 .286s-.502.083-.72.217L.57 9.643c-.352.235-.57.654-.57 1.072v9.14c0 .42.218.838.57 1.072l13.71 9.14c.218.135.47.22.72.22s.502-.085.72-.22l13.71-9.14c.352-.234.57-.652.57-1.07v-9.142z" fill="#E3E3E3" fill-rule="evenodd"/></svg>
